X:138
T:Johnny's wedding
R:Reel
O:Ireland
B:O'Neill's 1216
S:O'Neill's 1216
Z:Transcription:Trish O'Neil, rearrangement, chords:Mike Long
M:C|
L:1/8
K:Bb
GA|\
"Gm"BGdG BGGB|"F"AFcF AFFA|"Gm"BGdG BGGB|"F"AF (3(D=E^F) "Gm"G2GA|\
"Gm"BGdG BGGB|
"F"AFcF AFFA|"Gm"GBAc "(Bb)"Bdce|"D"dg^fa "Gm"g2|]\
ga|\
"Gm"bgaf gdd=e|"F"fdcB AGFD|
"Gm"bgaf gddc|"D"dg^fa "Gm"g2ga|\
"Gm"bgaf gdd=e|"F"fdcB AGFD|"Gm"GBAc "(Bb)"Bdce|"D"dg^fa "Gm"g2|]
